images/gen-slider/5.svg

<svg width="258" height="44" viewBox="0 0 258 44" fill="none" xmlns="http://www.w3.org/2000/svg">
<path d="M0.751445 43L0.751445 0.299997L12.3414 0.299997L23.9314 26.835H25.4564L37.0464 0.299997H48.3314L48.3314 43H41.3164L41.3164 13.11L41.9264 7.315H41.3164L30.0314 33.24H19.0514L7.76645 7.315H7.15645L7.76645 13.11L7.76645 43H0.751445ZM59.0017 38.974C55.9517 35.8427 54.4267 31.9997 54.4267 27.445C54.4267 22.8903 55.9517 19.0677 59.0017 15.977C62.0923 12.8457 65.854 11.28 70.2867 11.28C74.7193 11.28 78.4607 12.8457 81.5107 15.977C84.6013 19.0677 86.1467 22.8903 86.1467 27.445V29.58L60.8317 29.58C61.3197 32.142 62.438 34.155 64.1867 35.619C65.9353 37.083 67.9687 37.815 70.2867 37.815C73.1333 37.815 75.4107 37.1033 77.1187 35.68C77.8913 35.1107 78.5623 34.399 79.1317 33.545H85.8417C84.9877 35.5377 83.91 37.2253 82.6087 38.608C79.274 41.9427 75.1667 43.61 70.2867 43.61C65.854 43.61 62.0923 42.0647 59.0017 38.974ZM61.1367 24.395L79.4367 24.395C79.0707 22.3617 78.0947 20.6333 76.5087 19.21C74.9633 17.7867 72.8893 17.075 70.2867 17.075C68.0907 17.075 66.1387 17.746 64.4307 19.088C62.7227 20.3893 61.6247 22.1583 61.1367 24.395ZM93.9594 39.157C91.1941 36.1477 89.8114 32.2437 89.8114 27.445C89.8114 22.6463 91.1941 18.7627 93.9594 15.794C96.7654 12.7847 100.263 11.28 104.451 11.28C107.095 11.28 109.514 12.0527 111.71 13.598C112.646 14.2487 113.479 15.001 114.211 15.855H114.516L114.516 0.299997L120.921 0.299997L120.921 43H114.516V39.035H114.211C113.52 39.889 112.686 40.6617 111.71 41.353C109.555 42.8577 107.135 43.61 104.451 43.61C100.263 43.61 96.7654 42.1257 93.9594 39.157ZM98.9614 19.759C97.3348 21.5483 96.5214 24.1103 96.5214 27.445C96.5214 30.7797 97.3348 33.3417 98.9614 35.131C100.588 36.9203 102.825 37.815 105.671 37.815C108.355 37.815 110.49 36.9203 112.076 35.131C113.703 33.301 114.516 30.739 114.516 27.445C114.516 24.151 113.703 21.6093 112.076 19.82C110.49 17.99 108.355 17.075 105.671 17.075C102.825 17.075 100.588 17.9697 98.9614 19.759ZM128.828 43V0.299997L147.433 0.299997C152.353 0.299997 156.318 1.68266 159.328 4.448C162.378 7.17267 163.903 10.5683 163.903 14.635C163.903 18.7017 162.378 22.1177 159.328 24.883C156.318 27.6077 152.353 28.97 147.433 28.97H135.843V43H128.828ZM135.843 22.26H147.433C150.401 22.26 152.658 21.589 154.204 20.247C155.79 18.8643 156.583 16.9937 156.583 14.635C156.583 12.2763 155.79 10.426 154.204 9.084C152.658 7.70133 150.401 7.01 147.433 7.01H135.843V22.26ZM170.805 39.157C168.04 36.1477 166.657 32.2437 166.657 27.445C166.657 22.6463 168.04 18.7627 170.805 15.794C173.611 12.7847 177.108 11.28 181.297 11.28C183.94 11.28 186.36 12.0527 188.556 13.598C189.491 14.2487 190.325 15.001 191.057 15.855H191.362V11.89L197.767 11.89V43H191.362V38.73H191.057C190.447 39.584 189.613 40.3973 188.556 41.17C186.36 42.7967 183.94 43.61 181.297 43.61C177.108 43.61 173.611 42.1257 170.805 39.157ZM175.807 19.759C174.18 21.5483 173.367 24.1103 173.367 27.445C173.367 30.7797 174.18 33.3417 175.807 35.131C177.434 36.9203 179.67 37.815 182.517 37.815C185.201 37.815 187.336 36.9203 188.922 35.131C190.549 33.301 191.362 30.739 191.362 27.445C191.362 24.151 190.549 21.6093 188.922 19.82C187.336 17.99 185.201 17.075 182.517 17.075C179.67 17.075 177.434 17.9697 175.807 19.759ZM205.063 43V11.89H211.468V16.465H211.773C212.221 15.611 212.871 14.7977 213.725 14.025C215.596 12.3983 217.792 11.585 220.313 11.585H223.973V17.685H220.008C217.528 17.685 215.474 18.478 213.847 20.064C212.261 21.6093 211.468 23.663 211.468 26.225V43H205.063ZM228.832 43V0.299997H235.237V24.09L239.812 24.09L249.267 11.89H256.587L245.302 26.225L257.502 43H249.572L240.117 29.885L235.237 29.885V43H228.832Z" fill="white"/>
</svg>

<svg width="258" height="44" fill="none" xmlns="http://www.w3.org/2000/svg"><path d="M.751 43V.3h11.59l11.59 26.535h1.525L37.046.3h11.285V43h-7.015V13.11l.61-5.795h-.61L30.031 33.24h-10.98L7.766 7.315h-.61l.61 5.795V43H.751zm58.25-4.026c-3.05-3.131-4.574-6.974-4.574-11.529s1.525-8.377 4.575-11.468c3.09-3.131 6.852-4.697 11.285-4.697 4.432 0 8.174 1.566 11.224 4.697 3.09 3.09 4.636 6.913 4.636 11.468v2.135H60.832c.488 2.562 1.606 4.575 3.355 6.039 1.748 1.464 3.782 2.196 6.1 2.196 2.846 0 5.124-.712 6.832-2.135a8.426 8.426 0 002.013-2.135h6.71c-.854 1.993-1.932 3.68-3.233 5.063-3.335 3.335-7.442 5.002-12.322 5.002-4.433 0-8.195-1.545-11.285-4.636zm2.136-14.579h18.3c-.366-2.033-1.342-3.762-2.928-5.185-1.546-1.423-3.62-2.135-6.222-2.135-2.196 0-4.148.671-5.856 2.013-1.708 1.301-2.806 3.07-3.294 5.307zm32.822 14.762c-2.765-3.01-4.148-6.913-4.148-11.712 0-4.799 1.383-8.682 4.148-11.651 2.806-3.01 6.304-4.514 10.492-4.514 2.644 0 5.063.773 7.259 2.318.936.65 1.769 1.403 2.501 2.257h.305V.3h6.405V43h-6.405v-3.965h-.305a12.434 12.434 0 01-2.501 2.318c-2.155 1.505-4.575 2.257-7.259 2.257-4.188 0-7.686-1.484-10.492-4.453zm5.002-19.398c-1.626 1.79-2.44 4.351-2.44 7.686s.814 5.897 2.44 7.686c1.627 1.79 3.864 2.684 6.71 2.684 2.684 0 4.819-.895 6.405-2.684 1.627-1.83 2.44-4.392 2.44-7.686 0-3.294-.813-5.836-2.44-7.625-1.586-1.83-3.721-2.745-6.405-2.745-2.846 0-5.083.895-6.71 2.684zM128.828 43V.3h18.605c4.92 0 8.885 1.383 11.895 4.148 3.05 2.725 4.575 6.12 4.575 10.187 0 4.067-1.525 7.483-4.575 10.248-3.01 2.725-6.975 4.087-11.895 4.087h-11.59V43h-7.015zm7.015-20.74h11.59c2.968 0 5.225-.671 6.771-2.013 1.586-1.383 2.379-3.253 2.379-5.612s-.793-4.209-2.379-5.551c-1.546-1.383-3.803-2.074-6.771-2.074h-11.59v15.25zm34.962 16.897c-2.765-3.01-4.148-6.913-4.148-11.712 0-4.799 1.383-8.682 4.148-11.651 2.806-3.01 6.303-4.514 10.492-4.514 2.643 0 5.063.773 7.259 2.318.935.65 1.769 1.403 2.501 2.257h.305V11.89h6.405V43h-6.405v-4.27h-.305c-.61.854-1.444 1.667-2.501 2.44-2.196 1.627-4.616 2.44-7.259 2.44-4.189 0-7.686-1.484-10.492-4.453zm5.002-19.398c-1.627 1.79-2.44 4.351-2.44 7.686s.813 5.897 2.44 7.686c1.627 1.79 3.863 2.684 6.71 2.684 2.684 0 4.819-.895 6.405-2.684 1.627-1.83 2.44-4.392 2.44-7.686 0-3.294-.813-5.836-2.44-7.625-1.586-1.83-3.721-2.745-6.405-2.745-2.847 0-5.083.895-6.71 2.684zM205.063 43V11.89h6.405v4.575h.305c.448-.854 1.098-1.667 1.952-2.44 1.871-1.627 4.067-2.44 6.588-2.44h3.66v6.1h-3.965c-2.48 0-4.534.793-6.161 2.379-1.586 1.545-2.379 3.599-2.379 6.161V43h-6.405zm23.769 0V.3h6.405v23.79h4.575l9.455-12.2h7.32l-11.285 14.335L257.502 43h-7.93l-9.455-13.115h-4.88V43h-6.405z" fill="#fff"/></svg>
